X:2
T:No.84 Curlew Hills
C:bandance
L:1/8
M:4/4
K:G
GABc dgfa|g2B2d4|cBAB c2c2|
BAGA BcBA|GABc dgfa|g2B2d4|
cBAB BAFG|[1A2G2G2D2:|[2A2G2G2Bc||
d2b2c2a2|B2g2gdBG|FGAB BAFA|
GFGA BABc|d2b2c2a2|B2g2gdBG|
FGAB BAFG|[1A2G2G2Bc:|[2A2G2G2D2||
